X: 617
T: Sparkling Blue Eyes   #2
T: gorm-rosg n-dri\.t\.ea\.d
R: air, hornpipe
%S: s:2 b:9(5+4)
B: O'Neill's 1850 #617
O: F.O'Neill
Z: John Walsh (walsh@math.ubc.ca)
Q: "Moderate"
M: C
L: 1/8
K: G
"^A"[|] dc | B2 B>G A2 A>F | G2 G2 A>G F>G | B2 A>G A2 [1 (3GFE | D2 ^C2 D2 :|[2 (3Adc | A2 G2 G2 |]
"^B"[| D>C | D2 Dc B2 c2 | d2 dc B A3 | B2 c2 d2 cA | GF D^C HD2 "^->A2y |]
% dc | B2 B>G A2 A>F | G2 G2 A>G F>G | B2 A>G A2 (3Adc | A2 G2 G2 |]
